img/brand/brand4.svg

<svg width="90" height="55" viewBox="0 0 90 55" fill="none" xmlns="http://www.w3.org/2000/svg">
<path d="M24.0231 17.1708H15.6462L14.9539 20.9269H22.5693C26.3077 20.9269 27.4154 22.2683 27.3462 24.4147C27.3462 25.5549 26.8616 27.433 26.5846 28.0366C26.0308 29.6464 24.8539 31.5244 20.4231 31.5244H13.0846L12.3923 35.2805H20.7693C23.7462 35.2805 24.9923 34.9452 26.3077 34.3415C29.2846 33 31.0154 30.183 31.7077 26.4939C32.7462 21.061 31.4308 17.1708 24.0231 17.1708Z" fill="white"/>
<path d="M49.9846 35.3476L50.6077 32.061H57.8077C58.3615 32.061 58.7769 31.7256 58.8462 31.189C58.9846 30.6524 58.7077 30.3171 58.0846 30.3171H54.6231C51.9231 30.3171 50.6077 28.7744 51.0923 26.1585C51.5769 23.5427 53.4462 22 56.1462 22H63.9692L63.3462 25.2866H56.4923C55.9385 25.2866 55.5231 25.622 55.4538 26.1585C55.3154 26.6951 55.5923 27.0305 56.2154 27.0305H59.6769C62.3769 27.0305 63.6923 28.5732 63.2077 31.189C62.7231 33.8049 60.9231 35.3476 58.1539 35.3476H49.9846Z" fill="white"/>
<path d="M39.1154 35.3476C34.6847 35.3476 32.677 33.0001 33.4385 28.7074C34.2 24.4147 37.1077 22.0671 41.5385 22.0671H49.4308L47.0077 35.4147L39.1154 35.3476ZM44.2385 25.2866H42.2308C39.8077 25.2866 38.3539 26.2927 37.9385 28.7074C37.4539 31.0549 38.4231 32.1281 40.8462 32.1281H43.0616L44.2385 25.2866Z" fill="white"/>
<path d="M73.8 35.3475L75.1846 27.5671C75.4616 26.0244 74.7693 25.3536 73.2462 25.3536H71.0308L69.2308 35.2805H64.6616L67.9846 17.1036H72.5539L71.6539 21.9329H75.0462C79.0616 21.9329 80.5154 23.6097 79.7539 27.5L78.3693 35.2805L73.8 35.3475Z" fill="white"/>
<path d="M11.9769 24.3475C9.76156 24.3475 9.48463 25.7561 9.27694 26.5609C9.00002 27.6341 8.93079 28.1036 8.93079 28.1036H17.5154C19.7308 28.1036 20.0077 26.6951 20.2154 25.8902C20.4923 24.817 20.5616 24.3475 20.5616 24.3475H11.9769Z" fill="white"/>
</svg>

<svg width="90" height="55" viewBox="0 0 90 55" fill="none" xmlns="http://www.w3.org/2000/svg"><path d="M24.023 17.17h-8.377l-.692 3.757h7.615c3.739 0 4.846 1.341 4.777 3.488 0 1.14-.484 3.018-.761 3.622-.554 1.61-1.731 3.487-6.162 3.487h-7.338l-.693 3.757h8.377c2.977 0 4.223-.336 5.539-.94 2.977-1.341 4.707-4.158 5.4-7.847 1.038-5.433-.277-9.323-7.685-9.323zm25.962 18.178l.623-3.287h7.2c.553 0 .969-.335 1.038-.872.139-.537-.138-.872-.761-.872h-3.462c-2.7 0-4.015-1.543-3.53-4.159.484-2.615 2.353-4.158 5.053-4.158h7.823l-.623 3.287h-6.854c-.553 0-.969.335-1.038.872-.139.536.138.872.761.872h3.462c2.7 0 4.015 1.542 3.53 4.158-.484 2.616-2.284 4.159-5.053 4.159h-8.17zm-10.87 0c-4.43 0-6.438-2.348-5.677-6.64.762-4.293 3.67-6.64 8.1-6.64h7.893l-2.423 13.347-7.893-.067zm5.123-10.061h-2.007c-2.423 0-3.877 1.006-4.293 3.42-.484 2.348.485 3.421 2.908 3.421h2.216l1.177-6.841zM73.8 35.347l1.385-7.78c.277-1.543-.416-2.213-1.939-2.213h-2.215l-1.8 9.927h-4.57l3.324-18.177h4.569l-.9 4.829h3.392c4.016 0 5.47 1.677 4.708 5.567l-1.385 7.78-4.569.067z" fill="#fff"/><path d="M11.977 24.348c-2.215 0-2.492 1.408-2.7 2.213-.277 1.073-.346 1.543-.346 1.543h8.584c2.216 0 2.493-1.409 2.7-2.214.277-1.073.347-1.543.347-1.543h-8.585z" fill="#fff"/></svg>
